dist/svg/u1F32D.svg

<?xml version="1.0" encoding="UTF-8"?><svg id="Layer_1" xmlns="http://www.w3.org/2000/svg" viewBox="0 0 40 40"><rect y="0" width="40" height="40" transform="translate(40 40) rotate(-180)" style="fill:none;"/><g><path d="M30.86209,4.9198c-3.47756-3.49929-9.28044-3.33554-12.96115,.36568L5.37137,17.90815c-3.66593,3.68631-3.84285,9.4907-.40847,12.99454L30.90269,4.9629c-.01389-.01418-.02662-.02902-.0406-.0431Z" style="fill:#ff9c00;"/><path d="M22.09905,34.71451l12.5296-12.62264c3.66589-3.68634,3.84282-9.49073,.40844-12.99457L9.0973,35.03709c.01389,.01418,.02662,.02902,.0406,.0431,3.47756,3.49929,9.28047,3.33557,12.96115-.36568Z" style="fill:#ff9c00;"/><path d="M28.74533,4.75606L4.84615,28.79637c-1.73907,1.74934-1.73899,4.58549,.00008,6.33484,1.73907,1.74934,4.55858,1.74942,6.29765,.00008L35.04305,11.09097c1.73907-1.74934,1.73915-4.58565,.00008-6.33499-1.73907-1.74934-4.55873-1.74926-6.2978,.00008Z" style="fill:#e32939;"/><path d="M6.16005,34.26435c-.44958,0-.81404-.36446-.81404-.81456,0-2.63793,2.13614-4.78503,4.76206-4.78503h1.92101c1.72781,0,3.13398-1.41609,3.13398-3.15695v-3.25616c0-2.63793,2.13614-4.78503,4.76206-4.78503h3.18149c1.72781,0,3.13398-1.41609,3.13398-3.15695v-3.27705c0-2.63897,2.13614-4.78608,4.76206-4.78608h3.42691c.44958,0,.81404,.36446,.81404,.81456s-.36446,.81456-.81404,.81456h-3.42691c-1.72781,0-3.13398,1.41609-3.13398,3.15695v3.27705c0,2.63897-2.13614,4.78608-4.76206,4.78608h-3.18149c-1.72781,0-3.13398,1.41504-3.13398,3.15591v3.25616c0,2.63897-2.13614,4.78608-4.76206,4.78608h-1.92101c-1.72781,0-3.13398,1.41504-3.13398,3.15591,0,.4501-.36446,.81456-.81404,.81456Z" style="fill:#ffd06c;"/></g></svg>

<svg id="Layer_1" data-name="Layer 1" xmlns="http://www.w3.org/2000/svg" viewBox="0 0 40 40"><defs><style>.cls-1{fill:none;}.cls-2{fill:#ff9c00;}.cls-3{fill:#e32939;}.cls-4{fill:#ffd06c;}</style></defs><rect class="cls-1" width="40" height="40" transform="translate(40 40) rotate(-180)"/><path class="cls-2" d="M30.862,4.92A9.138,9.138,0,0,0,17.9,5.285L5.371,17.908A9.273,9.273,0,0,0,4.963,30.9L30.9,4.963Z"/><path class="cls-2" d="M22.1,34.715l12.53-12.623A9.273,9.273,0,0,0,35.037,9.1L9.1,35.037l.041.043A9.138,9.138,0,0,0,22.1,34.715Z"/><path class="cls-3" d="M28.745,4.756,4.846,28.8a4.5,4.5,0,0,0,0,6.335,4.434,4.434,0,0,0,6.3,0l23.9-24.04a4.5,4.5,0,0,0,0-6.335A4.436,4.436,0,0,0,28.745,4.756Z"/><path class="cls-4" d="M6.16,34.264a.813.813,0,0,1-.814-.814,4.779,4.779,0,0,1,4.762-4.785h1.921a3.149,3.149,0,0,0,3.134-3.157V22.252a4.779,4.779,0,0,1,4.762-4.785h3.182a3.15,3.15,0,0,0,3.134-3.157V11.033A4.779,4.779,0,0,1,31,6.247H34.43a.815.815,0,0,1,0,1.629H31a3.149,3.149,0,0,0-3.134,3.157V14.31A4.779,4.779,0,0,1,23.107,19.1H19.925a3.148,3.148,0,0,0-3.134,3.156v3.256a4.779,4.779,0,0,1-4.762,4.786H10.108A3.148,3.148,0,0,0,6.974,33.45.813.813,0,0,1,6.16,34.264Z"/></svg>
